X: 49
T: 45. SWALLOW TAIL
B: Sam Bayard, "Hill Country Tunes" 1945 #45
S: Played by Irvin Yaugher Jr., Mt. Independence, PA, Oct 19 1943. Learned from Bill Lowry, a local fiddler, now deceased.
R: jig
M: 6/8
L: 1/8
Z: 2010 John Chambers <jc:trillian.mit.edu>
K: Ador
e- |\
efe AGA | efe edB | ded GFG | ded dze |
efe AGA | efe gzf | efe edB | A3 A2 || e |
ef^g a2b |[M:9/8] a^/ge g3 d3 |[M:6/8] ef^g a2b |[M:9/8] a^/ge a2z d3 |
[M:6/8] ef^g a2b | a^/ge gz2 | G>Bd edB | A3 A2 |]

%%sep 2 1 500
%%sep 1 1 500

